X: 1
T: Yesterday
M: C
K: F
L: 1/4
"F"G/F/F3|"Em7"zA/=B/ "A7"^c/d/e/f/|"Dm"e>d"Dm/C"d2|"Bb"zd/d/ "C7"c/B/A/G|
"Bb/F"B"F"A/A/-A"C/E"G|"Dm"FA"G"GD|"Bb"F"F"A/A/-A2:|
"Em7"A2"A7"A2|"Dm"d"C"e"Bb"f"Dm/A"e/d/|"Gm6"e>d"C7"cd/A/-|"F"A4|
"Em7"A2"A7"A2|"Dm"d"C"e"Bb"f"Dm/A"e/d/|"Gm6"e>d"C7"ce|"F"fcBA!D.C.!||

